X:1
T:Christ Is Risen
T:Christ Is Risen
T:\"Dicks Maggot\" (Trad arr Shaw)
T:SJS
T:Copyright © 2004 by Simon J Shaw All Rights Reserved
T:Copyright © 2004 by Simon J Shaw All Rights Reserved
C:\"Dicks Maggot\" (Trad arr Shaw)
Z:Copyright © 2004 by Simon J Shaw
Z:All Rights Reserved
%%score 1 2 3 4
L:1/8
Q:1/2=80
M:3/2
K:Eb
V:1 treble 
V:2 treble 
V:3 bass 
V:4 bass 
V:1
|:"^f" e2 B4 G4 F2 | (GA) B2 (FG A2) G4 | e2 B4 G4 F2 | (GA) B2 (E2 D2) E4 :| d2 f4 d4 B2 | %5
 (ef) g2 (cd e2) d4 | d2 f4 d4 B2 | (Bc) d2 (FG =A2) B4 | (GA) B2 (GA B2) c4 | (cd) e2 (cd e2) d4 | %10
 e2 B4 G4 A2 | F2 F2 F4 E4 |] %12
V:2
|:"^mp" B2 E4 (E2 F2) F2 | E2 G2 (F2 D2) E4 | B2 E4 (E2 F2) F2 | E2 G2 (B,2 D2) E4 :| D2 F4 B4 B2 | %5
w: Christ is ris- * en|~ ~ ~ * ~|death is con- * quered|~ ~ ~ * ~|His the vict- ory|
w: Jud- ah's Li- * on|Al- le- lu- * ia!|bursts His pri- * son|Al- le- lu- * ia!|Sing His prais- es|
w: Bless- ing, hon- * our|~ ~ ~ * ~|to the Sav- * iour|~ ~ ~ * ~|Come in glo- ry|
 B2 c2 (=A2 F2) B4 | B2 F4 B4 G2 | (DE) F2 (F3 E) D4 | (EF) G2 (EF G2) (A2 G2) | %9
w: ~ ~ ~ * ~|our sal- va- tion|~ * ~ ~ * ~||
w: Al- le- lu- * ia!|our Red- eem- er|Al- * le- lu- * ia!|Al- * le- lu- * * ia *|
w: ~ ~ ~ * ~|power and mer- cy|~ * ~ ~ * ~||
 F2 =A2 (c2 F2) B4 | G2 G4 E4 E2 | C2 E2 (E2 D2) !fermata!E4 |] %12
w: |||
w: Al- le- lu- * ia|Al- le- lu- ia|Al- le- lu- * ia|
w: |||
V:3
|:"^ff" G,2 B,4 (B,2 A,2) A,2 | (G,F,) E,2 (C2 B,A,) G,4 | G,2 B,4 (B,2 A,2) A,2 | %3
 (G,F,) E,2 (E,2 A,2) G,4 :| B,2 D4 F4 D2 | E2 C2 (CB, =A,2) B,4 | D2 B,4 B,4 D2 | %7
 F,2 B,2 (B,2 =A,2) B,4 | (B,A,) G,2 (G,2 B,2) E4 | C2 C2 (F3 E) D4 | B,2 E4 B,4 A,2 | %11
 A,2 A,2 (F,2 A,2) G,4 |] %12
V:4
|: E,2 G,4 B,,4 D,2 | E,2 G,,2 (A,,2 B,,2) E,4 | E,2 G,4 B,,4 D,2 | E,2 G,,2 (A,,2 B,,2) E,4 :| %4
 B,,2 B,4 B,4 A,2 | G,2 E,2 F,4 B,,4 | B,,2 D,4 G,4 G,2 | (F,E,) D,2 (E,2 F,2) (B,2 A,2) | %8
 (G,F,) E,2 (E,2 G,2) A,4 | (=A,G,) F,2 (F,2 A,2) (B,2 _A,2) | G,2 E,4 B,,4 C,2 | %11
 A,,2 F,,2 B,,4 E,4 |] %12

